docs/images/icons/telegram.svg

<svg width="35.000000" height="35.000000" viewBox="0 0 35 35" fill="none" xmlns="http://www.w3.org/2000/svg" xmlns:xlink="http://www.w3.org/1999/xlink">
	<desc>
			Created with Pixso.
	</desc>
	<defs/>
	<path id="telegram" d="M3.3877 34.9985L31.6123 34.9985C33.4756 34.9985 35 33.3551 35 31.3459L35 3.65112C35 1.64233 33.4756 -0.00146484 31.6123 -0.00146484L3.3877 -0.00146484C1.52441 -0.00146484 0 1.64233 0 3.65112L0 31.3459C0 33.3551 1.52441 34.9985 3.3877 34.9985ZM4.49316 16.354L28.2754 7.08618C29.1816 6.73364 30.1162 7.52563 29.918 8.47632L25.8574 27.8896C25.667 28.8 24.5977 29.2095 23.8477 28.6588L17.7168 24.1583L14.5928 27.3494C14.0439 27.9092 13.0967 27.6824 12.8613 26.9352L10.6055 19.7782L4.5625 17.9935C3.76855 17.7599 3.72266 16.6541 4.49316 16.354ZM14.2471 21.1631L25.293 11.3945C25.5586 11.16 25.251 10.7478 24.9502 10.9336L11.9062 19.0244C11.6758 19.1667 11.5723 19.4468 11.6514 19.7047L13.4023 25.3434C13.4395 25.4619 13.6113 25.4457 13.625 25.322L14.0508 21.5415C14.0664 21.3953 14.1367 21.2605 14.2471 21.1631Z" clip-rule="evenodd" fill="#000000" fill-opacity="1.000000" fill-rule="evenodd"/>
</svg>

<svg width="35" height="35" fill="none" xmlns="http://www.w3.org/2000/svg"><path d="M3.388 34.998h28.224c1.864 0 3.388-1.643 3.388-3.652V3.65C35 1.642 33.476 0 31.612 0H3.388C1.524-.001 0 1.642 0 3.65v27.695c0 2.01 1.524 3.652 3.388 3.652Zm1.105-18.644 23.782-9.268a1.224 1.224 0 0 1 1.643 1.39l-4.06 19.414a1.28 1.28 0 0 1-2.01.769l-6.131-4.5-3.124 3.19a1.038 1.038 0 0 1-1.732-.414l-2.256-7.157-6.043-1.784c-.793-.234-.84-1.34-.069-1.64Zm9.754 4.81 11.046-9.77c.266-.234-.042-.646-.343-.46l-13.044 8.09a.594.594 0 0 0-.255.68l1.751 5.64c.038.118.21.102.223-.022l.426-3.78a.588.588 0 0 1 .196-.379Z" clip-rule="evenodd" fill="#000" fill-rule="evenodd"/></svg>
